papirus/32x32/apps/eid-viewer.svg

<svg height="32" viewBox="0 0 32 32" width="32" xmlns="http://www.w3.org/2000/svg"><path d="m3.4 7h25.2c.7483 0 1.4.651672 1.4 1.4v15.2c0 .7483-.651672 1.4-1.4 1.4h-25.2c-.7483 0-1.4-.6517-1.4-1.4v-15.2c0-.7483.651672-1.4 1.4-1.4z" fill="#ccc"/><path d="m24.907082 10c2.285571.000543 2.085836 2.444987 2.085836 2.444987v2.138753c0 .786762-.992006 2.41626-.992006 2.41626v1.5l1.999088.927563v1.572437h-8v-1.572437l1.996554-.927563v-1.5c0 0-.994879-1.627869-.98934-2.41626v-2.138753c0 0-.199999-2.444443 2.085572-2.444986" opacity=".2"/><path d="m5 18l-2-2 2-2z" fill="#289b36"/><path d="m6.875 13h5.25c.444141 0 .875.49241.875 1v4c0 .50759-.430859 1-.875 1h-5.25c-.4441413 0-.875-.49241-.875-1v-4c0-.50759.4308587-1 .875-1z" fill="#ecb64e"/><path d="m28.6 8c .7756 0 1.4.6244 1.4 1.4v6.6h-28v-6.6c0-.7756.6244-1.4 1.4-1.4z" opacity=".1"/><path d="m2 22.599609v1c0 .7483.6520906 1.400391 1.4003906 1.400391h25.1992184c.748328 0 1.400391-.652091 1.400391-1.400391v-1c0 .7483-.652063 1.400391-1.400391 1.400391h-25.1992184c-.7483 0-1.4003906-.652091-1.4003906-1.400391z" opacity=".3"/><g transform="translate(0 -.04999962)"><circle cx="-16.067999" cy="14" fill="#484848" r="6" transform="rotate(-90)"/><rect fill="#484848" height="8" rx="1.5" ry="1.4545453" transform="matrix(.70710678 -.70710678 .70710678 .70710678 0 0)" width="3" x="-2.9622965" y="24.761286"/><path d="m11.878678 14.872657c-1.180303 1.180302-1.178944 3.063695.000001 4.24264 1.178903 1.178903 3.062338 1.180304 4.24264.000001 1.180303-1.180303 1.178945-3.063696 0-4.242641-1.178945-1.178945-3.062338-1.180303-4.242641 0z" opacity=".2" stroke-width="1.55499995"/><path d="m11.878678 13.946679c-1.180303 1.180302-1.178944 3.063695.000001 4.24264 1.178903 1.178903 3.062338 1.180304 4.24264.000001 1.180303-1.180303 1.178945-3.063696 0-4.242641-1.178945-1.178945-3.062338-1.180303-4.242641 0z" fill="#5d99ff" stroke-width="1.55499995"/></g><path d="m3.4003906 7c-.748328 0-1.4003906.6520906-1.4003906 1.4003906v1c0-.7483.6520626-1.4003906 1.4003906-1.4003906h25.1992184c.7483 0 1.400391.6520626 1.400391 1.4003906v-1c0-.748328-.652091-1.4003906-1.400391-1.4003906z" fill="#fff" opacity=".2"/></svg>

<?xml version="1.0" encoding="UTF-8" standalone="no"?>
<svg
   xmlns:dc="http://purl.org/dc/elements/1.1/"
   xmlns:cc="http://creativecommons.org/ns#"
   xmlns:rdf="http://www.w3.org/1999/02/22-rdf-syntax-ns#"
   xmlns:svg="http://www.w3.org/2000/svg"
   xmlns="http://www.w3.org/2000/svg"
   xmlns:sodipodi="http://sodipodi.sourceforge.net/DTD/sodipodi-0.dtd"
   xmlns:inkscape="http://www.inkscape.org/namespaces/inkscape"
   id="svg2"
   version="1.1"
   viewBox="0 0 32 32"
   inkscape:version="0.91 r13725"
   sodipodi:docname="eid-viewer.svg"
   width="32"
   height="32">
  <defs
     id="defs20" />
  <sodipodi:namedview
     pagecolor="#474747"
     bordercolor="#666666"
     borderopacity="1"
     objecttolerance="10"
     gridtolerance="10"
     guidetolerance="10"
     inkscape:pageopacity="0"
     inkscape:pageshadow="2"
     inkscape:window-width="1600"
     inkscape:window-height="843"
     id="namedview18"
     showgrid="false"
     inkscape:zoom="15.07"
     inkscape:cx="15.855504"
     inkscape:cy="14.608414"
     inkscape:window-x="0"
     inkscape:window-y="0"
     inkscape:window-maximized="1"
     inkscape:current-layer="svg2">
    <inkscape:grid
       type="xygrid"
       id="grid4148" />
  </sodipodi:namedview>
  <metadata
     id="metadata83">
    <rdf:RDF>
      <cc:Work
         rdf:about="">
        <dc:format>image/svg+xml</dc:format>
        <dc:type
           rdf:resource="http://purl.org/dc/dcmitype/StillImage" />
        <dc:title></dc:title>
      </cc:Work>
    </rdf:RDF>
  </metadata>
  <path
     inkscape:connector-curvature="0"
     id="rect29"
     d="M 3.4,7 28.6,7 C 29.3483,7 30,7.651672 30,8.4 l 0,15.2 C 30,24.3483 29.348328,25 28.6,25 L 3.4,25 C 2.6517,25 2,24.3483 2,23.6 L 2,8.4 C 2,7.6517 2.651672,7 3.4,7 Z"
     style="fill:#cccccc;fill-opacity:1"
     sodipodi:nodetypes="sssssssss" />
  <path
     sodipodi:nodetypes="ccsccccccccccc"
     style="opacity:0.2;fill:#000000;fill-opacity:1"
     inkscape:connector-curvature="0"
     d="m 24.907082,10 c 2.285571,5.43e-4 2.085836,2.444987 2.085836,2.444987 l 0,2.138753 C 26.992918,15.370502 26.000912,17 26.000912,17 l 0,1.5 L 28,19.427563 28,21 20,21 20,19.427563 21.996554,18.5 l 0,-1.5 c 0,0 -0.994879,-1.627869 -0.98934,-2.41626 l 0,-2.138753 c 0,0 -0.199999,-2.444443 2.085572,-2.444986"
     id="path33" />
  <path
     id="path35"
     d="M 5,18 3,16 5,14 Z"
     inkscape:connector-curvature="0"
     style="fill:#289b36;fill-opacity:1" />
  <path
     id="rect3574"
     d="m 6.875,13 5.25,0 C 12.569141,13 13,13.49241 13,14 l 0,4 c 0,0.50759 -0.430859,1 -0.875,1 l -5.25,0 C 6.4308587,19 6,18.50759 6,18 l 0,-4 c 0,-0.50759 0.4308587,-1 0.875,-1 z"
     inkscape:connector-curvature="0"
     style="fill:#ecb64e;fill-opacity:1" />
  <path
     inkscape:connector-curvature="0"
     id="path4009"
     style="opacity:0.1;enable-background:new"
     d="M 28.6,8 C 29.3756,8 30,8.6244 30,9.4 L 30,16 2,16 2,9.4 C 2,8.6244 2.6244,8 3.4,8 Z"
     sodipodi:nodetypes="ssccsss" />
  <path
     style="fill:#000000;fill-opacity:1;opacity:0.3"
     d="M 2 22.599609 L 2 23.599609 C 2 24.347909 2.6520906 25 3.4003906 25 L 28.599609 25 C 29.347937 25 30 24.347909 30 23.599609 L 30 22.599609 C 30 23.347909 29.347937 24 28.599609 24 L 3.4003906 24 C 2.6520906 24 2 23.347909 2 22.599609 z "
     id="path4254" />
  <g
     id="g4259"
     transform="translate(0,-0.04999962)">
    <circle
       transform="matrix(0,-1,1,0,0,0)"
       r="6"
       cy="14"
       cx="-16.067999"
       id="path4366"
       style="fill:#484848" />
    <rect
       transform="matrix(0.70710678,-0.70710678,0.70710678,0.70710678,0,0)"
       x="-2.9622965"
       y="24.761286"
       width="3"
       height="8"
       ry="1.4545453"
       rx="1.5"
       id="rect4368"
       style="fill:#484848" />
    <path
       inkscape:connector-curvature="0"
       d="m 11.878678,14.872657 c -1.180303,1.180302 -1.178944,3.063695 10e-7,4.24264 1.178903,1.178903 3.062338,1.180304 4.24264,10e-7 1.180303,-1.180303 1.178945,-3.063696 0,-4.242641 -1.178945,-1.178945 -3.062338,-1.180303 -4.242641,0 z"
       style="color:#000000;opacity:0.2;fill:#000000;fill-opacity:1;stroke-width:1.55499995"
       id="path4247" />
    <path
       id="path3430"
       style="color:#000000;fill:#5d99ff;stroke-width:1.55499995"
       d="m 11.878678,13.946679 c -1.180303,1.180302 -1.178944,3.063695 10e-7,4.24264 1.178903,1.178903 3.062338,1.180304 4.24264,10e-7 1.180303,-1.180303 1.178945,-3.063696 0,-4.242641 -1.178945,-1.178945 -3.062338,-1.180303 -4.242641,0 z"
       inkscape:connector-curvature="0" />
  </g>
  <path
     style="fill:#ffffff;fill-opacity:1;opacity:0.2"
     d="M 3.4003906 7 C 2.6520626 7 2 7.6520906 2 8.4003906 L 2 9.4003906 C 2 8.6520906 2.6520626 8 3.4003906 8 L 28.599609 8 C 29.347909 8 30 8.6520626 30 9.4003906 L 30 8.4003906 C 30 7.6520626 29.347909 7 28.599609 7 L 3.4003906 7 z "
     id="path4249" />
</svg>
